icons/solid/square-2-stack.svg

<svg width="24" height="24" viewBox="0 0 24 24" fill="none" xmlns="http://www.w3.org/2000/svg">
<path d="M16.5 6C16.5 4.34315 15.1569 3 13.5 3H6C4.34315 3 3 4.34315 3 6V13.5C3 15.1569 4.34315 16.5 6 16.5V10.5C6 8.01472 8.01472 6 10.5 6H16.5Z" fill="#0F172A"/>
<path d="M18 7.5C19.6569 7.5 21 8.84315 21 10.5V18C21 19.6569 19.6569 21 18 21H10.5C8.84315 21 7.5 19.6569 7.5 18V10.5C7.5 8.84315 8.84315 7.5 10.5 7.5H18Z" fill="#0F172A"/>
</svg>

<svg xmlns="http://www.w3.org/2000/svg" viewBox="0 0 24 24" fill="currentColor" aria-hidden="true">
  <path d="M16.5 6a3 3 0 00-3-3H6a3 3 0 00-3 3v7.5a3 3 0 003 3v-6A4.5 4.5 0 0110.5 6h6z"/>
  <path d="M18 7.5a3 3 0 013 3V18a3 3 0 01-3 3h-7.5a3 3 0 01-3-3v-7.5a3 3 0 013-3H18z"/>
</svg>
